lib/svg/pin.svg

<svg xmlns="http://www.w3.org/2000/svg" width="16" height="16" viewBox="0 0 16 16"><path d="M10 1.2V2l.5 1L6 6H2.2c-.44 0-.67.53-.34.86L5 10l-4 5 5-4 3.14 3.14a.5.5 0 0 0 .86-.34V10l3-4.5 1 .5h.8c.44 0 .67-.53.34-.86L10.86.86a.5.5 0 0 0-.86.34z"/></svg>

<?xml version="1.0" encoding="UTF-8" standalone="no"?>
<svg width="16px" height="16px" viewBox="0 0 16 16" version="1.1" xmlns="http://www.w3.org/2000/svg" xmlns:xlink="http://www.w3.org/1999/xlink">
    <!-- Generator: Sketch 3.8.3 (29802) - http://www.bohemiancoding.com/sketch -->
    <title>pin</title>
    <desc>Created with Sketch.</desc>
    <defs></defs>
    <g id="Octicons" stroke="none" stroke-width="1" fill="none" fill-rule="evenodd">
        <g id="pin" fill="#000000">
            <path d="M10,1.2 L10,2 L10.5,3 L6,6 L2.2,6 C1.76,6 1.53,6.53 1.86,6.86 L5,10 L1,15 L6,11 L9.14,14.14 C9.47,14.47 10,14.23 10,13.8 L10,10 L13,5.5 L14,6 L14.8,6 C15.24,6 15.47,5.47 15.14,5.14 L10.86,0.86 C10.53,0.53 10,0.77 10,1.2 L10,1.2 Z" id="Shape"></path>
        </g>
    </g>
</svg>
